Simply-Blue-Circles/scalable/apps/twitter.svg

<svg xmlns="http://www.w3.org/2000/svg" width="48" height="48" viewBox="0 0 12.7 12.7"><path d="M6.34.07a6.29 6.29 0 0 0-6.29 6.3 6.29 6.29 0 0 0 6.3 6.28 6.29 6.29 0 0 0 6.28-6.29A6.29 6.29 0 0 0 6.34.07zm-.01.94a5.4 5.4 0 0 1 5.4 5.4 5.4 5.4 0 0 1-5.4 5.41 5.4 5.4 0 0 1-5.41-5.4A5.4 5.4 0 0 1 6.32 1z" fill="#2c89a0"/><path d="M10.8 4.04c-.32.14-.66.23-1.02.27.37-.21.65-.56.78-.97-.34.2-.72.35-1.12.43a1.75 1.75 0 0 0-2.99 1.6 4.98 4.98 0 0 1-3.62-1.83 1.75 1.75 0 0 0 .55 2.34c-.29-.01-.56-.09-.8-.22v.02c0 .85.6 1.56 1.41 1.72a1.78 1.78 0 0 1-.8.03c.23.7.88 1.2 1.65 1.22a3.52 3.52 0 0 1-2.6.73 4.96 4.96 0 0 0 7.68-4.43c.34-.25.64-.56.87-.91z" class="fil0" style="marker:none" color="#000" overflow="visible" opacity=".75" fill="#00f"/></svg>

<?xml version="1.0" encoding="UTF-8" standalone="no"?>
<svg
   xmlns:dc="http://purl.org/dc/elements/1.1/"
   xmlns:cc="http://creativecommons.org/ns#"
   xmlns:rdf="http://www.w3.org/1999/02/22-rdf-syntax-ns#"
   xmlns:svg="http://www.w3.org/2000/svg"
   xmlns="http://www.w3.org/2000/svg"
   xmlns:sodipodi="http://sodipodi.sourceforge.net/DTD/sodipodi-0.dtd"
   xmlns:inkscape="http://www.inkscape.org/namespaces/inkscape"
   width="48"
   height="48"
   viewBox="0 0 12.7 12.7"
   version="1.1"
   id="svg6"
   sodipodi:docname="twitter.svg"
   inkscape:version="0.92.4 (5da689c313, 2019-01-14)">
  <metadata
     id="metadata12">
    <rdf:RDF>
      <cc:Work
         rdf:about="">
        <dc:format>image/svg+xml</dc:format>
        <dc:type
           rdf:resource="http://purl.org/dc/dcmitype/StillImage" />
        <dc:title></dc:title>
      </cc:Work>
    </rdf:RDF>
  </metadata>
  <defs
     id="defs10" />
  <sodipodi:namedview
     pagecolor="#ffffff"
     bordercolor="#666666"
     borderopacity="1"
     objecttolerance="10"
     gridtolerance="10"
     guidetolerance="10"
     inkscape:pageopacity="0"
     inkscape:pageshadow="2"
     inkscape:window-width="1087"
     inkscape:window-height="480"
     id="namedview8"
     showgrid="false"
     inkscape:zoom="4.9166667"
     inkscape:cx="2.1355932"
     inkscape:cy="24"
     inkscape:window-x="0"
     inkscape:window-y="25"
     inkscape:window-maximized="0"
     inkscape:current-layer="svg6" />
  <path
     d="M 6.34,0.07 A 6.29,6.29 0 0 0 0.05,6.37 6.29,6.29 0 0 0 6.35,12.65 6.29,6.29 0 0 0 12.63,6.36 6.29,6.29 0 0 0 6.34,0.07 Z M 6.33,1.01 a 5.4,5.4 0 0 1 5.4,5.4 5.4,5.4 0 0 1 -5.4,5.41 A 5.4,5.4 0 0 1 0.92,6.42 5.4,5.4 0 0 1 6.32,1 Z"
     id="path2"
     inkscape:connector-curvature="0"
     style="fill:#2c89a0" />
  <path
     d="M 10.8,4.04 C 10.48,4.18 10.14,4.27 9.78,4.31 10.15,4.1 10.43,3.75 10.56,3.34 10.22,3.54 9.84,3.69 9.44,3.77 A 1.75,1.75 0 0 0 6.45,5.37 4.98,4.98 0 0 1 2.83,3.54 1.75,1.75 0 0 0 3.38,5.88 C 3.09,5.87 2.82,5.79 2.58,5.66 v 0.02 c 0,0.85 0.6,1.56 1.41,1.72 a 1.78,1.78 0 0 1 -0.8,0.03 c 0.23,0.7 0.88,1.2 1.65,1.22 A 3.52,3.52 0 0 1 2.24,9.38 4.96,4.96 0 0 0 9.92,4.95 C 10.26,4.7 10.56,4.39 10.79,4.04 Z"
     class="fil0"
     style="color:#000000;overflow:visible;opacity:0.75;fill:#0000ff;marker:none"
     overflow="visible"
     id="path4"
     inkscape:connector-curvature="0" />
</svg>
